X:2502
T:The Chapman
P:Miss Macpherson of Giliston
C:Trad.
R:Reel (8x32)
B:RSCDS 25-2
Z:Anselm Lingnau <anselm@strathspey.org>
M:C
L:1/8
K:C
"C"c2cG c2cG|c2cG "G7"d2de|"C"c2cG EcGE|"G7"FDB,G, "C"C2C2|
"C"c2cG c2cG|c2cG "G7"d2de|"C"c2cG EcGE|"G7"FDB,G, "C"C2C2||
"C"gege "F"afaf|"C"gece "G"d2ef|"C"gege "F"afaf|"C"ec"G7"GB "C"c2 ce|
"C"gege "F"afaf|"C"ecge "G"d2df|"C"ec"Dm"fa "C"ge"Dm"dc|"G7"BGAG "C"C2C2|]
